OpenProtest/bin/protest/front/res/compmgmt.svg

<svg version="1.1" xmlns="http://www.w3.org/2000/svg" xmlns:xlink="http://www.w3.org/1999/xlink" x="0px" y="0px" width="48px" height="48px" viewBox="0 0 48 48" enable-background="new 0 0 48 48" xml:space="preserve">
<g fill="#202020">
<path d="M13.031,33.947l0.102-5.315c0-0.401,1.055-1.457,1.457-1.457l30.332,0.027 c0.377-0.013,1.486,0.94,1.486,1.43v5.315h0.104c0.309,0,0.559,0.253,0.559,0.563v12.233c0,0.312-0.25,0.563-0.559,0.563H13.032 c-0.31,0-0.56-0.252-0.56-0.563V34.51C12.471,34.2,12.721,33.947,13.031,33.947z M43.893,33.947v-3.887H15.711v3.887h3.008 c0.31,0,0.56,0.252,0.56,0.563v1.318h4.198V34.51c0-0.311,0.248-0.563,0.558-0.563h11.006c0.309,0,0.559,0.252,0.559,0.563v1.318 h4.662V34.51c0-0.311,0.252-0.563,0.563-0.563H43.893z"/>
<path d="M24.816,2.028c1.588,0,2.875,1.286,2.875,2.875v21.223L14.57,26.113c-1.144,0.046-2.297,1.146-2.434,2.363 l-0.003,4.694c0,0-0.646,0.651-0.662,1.267c0,3.664-0.08,7.328-0.025,10.989H3.16c-1.589,0-2.874,0.541-2.874-1.047V4.903 c0-1.589,1.285-2.875,2.874-2.875H24.816z M22.097,23.818c0.86,0,1.557-0.698,1.557-1.558v-3.696c0-0.86-0.698-1.557-1.557-1.557 H5.877c-0.857,0-1.554,0.697-1.554,1.557v3.696c0,0.861,0.697,1.558,1.554,1.558H22.097z M22.097,13.43 c0.86,0,1.557-0.697,1.557-1.557V8.178c0-0.86-0.698-1.557-1.557-1.557H5.877c-0.857,0-1.554,0.697-1.554,1.557v3.695 c0,0.86,0.697,1.557,1.554,1.557H22.097z"/>
</g></svg>

<svg version="1.1" xmlns="http://www.w3.org/2000/svg" xmlns:xlink="http://www.w3.org/1999/xlink" x="0px" y="0px" width="48px" height="48px" viewBox="0 0 48 48" enable-background="new 0 0 48 48" xml:space="preserve">
<g transform="matrix(1,0,0,1,0.578419,0.397742)">
<path d="M13.031,33.947L13.133,28.631C13.133,28.23 14.188,27.174 14.59,27.174L44.922,27.202C45.299,27.189 46.408,28.143 46.408,28.631L46.408,33.947L46.512,33.947C46.82,33.947 47.07,34.2 47.07,34.511L47.07,46.744C47.07,47.055 46.82,47.308 46.511,47.308L13.031,47.308C12.721,47.308 12.471,47.056 12.471,46.744L12.471,34.511C12.471,34.2 12.721,33.947 13.031,33.947ZM43.892,33.947L43.892,30.06L15.711,30.06L15.711,33.947L18.719,33.947C19.029,33.947 19.279,34.199 19.279,34.511L19.279,35.829L23.477,35.829L23.477,34.511C23.477,34.2 23.725,33.947 24.035,33.947L35.04,33.947C35.349,33.947 35.6,34.199 35.6,34.511L35.6,35.829L40.262,35.829L40.262,34.511C40.262,34.2 40.513,33.947 40.823,33.947L43.892,33.947Z" style="fill:rgb(32,32,32);fill-rule:nonzero;"/>
</g>
<path d="M24.816,2.028C26.404,2.028 27.692,3.314 27.692,4.903L27.692,26.126L14.57,26.113C13.426,26.159 12.273,27.26 12.136,28.476L12.133,33.172C12.133,33.172 11.487,33.823 11.471,34.438C11.471,38.101 11.391,41.765 11.446,45.428L3.16,45.428C1.571,45.428 0.286,45.969 0.286,44.381L0.286,4.903C0.286,3.314 1.571,2.028 3.16,2.028L24.816,2.028ZM22.097,23.818C22.957,23.818 23.654,23.12 23.654,22.26L23.654,18.564C23.654,17.704 22.956,17.007 22.097,17.007L5.877,17.007C5.02,17.007 4.323,17.704 4.323,18.564L4.323,22.26C4.323,23.121 5.02,23.818 5.877,23.818L22.097,23.818ZM22.097,13.43C22.957,13.43 23.654,12.733 23.654,11.873L23.654,8.178C23.654,7.318 22.956,6.621 22.097,6.621L5.877,6.621C5.02,6.621 4.323,7.318 4.323,8.178L4.323,11.873C4.323,12.733 5.02,13.43 5.877,13.43L22.097,13.43Z" style="fill:rgb(32,32,32);fill-rule:nonzero;"/>
</svg>
